assets/02_eyes/Eye 18.svg

<svg xmlns="http://www.w3.org/2000/svg" width="400" height="180" fill="none" viewBox="0 0 400 180"><g clip-path="url(#a)"><path fill="#fff" d="M290 0c0 49.699-40.301 90-90 90s-90-40.301-90-90z"/><path fill="#010101" d="M200 90c24.853 0 45-20.147 45-45S224.853 0 200 0s-45 20.147-45 45 20.147 45 45 45"/><path fill="#fff" d="M110 180c0-49.699 40.301-90 90-90s90 40.301 90 90z"/><path fill="#010101" d="M200 180c24.853 0 45-20.147 45-45s-20.147-45-45-45-45 20.147-45 45 20.147 45 45 45"/><path fill="#fff" d="m179.257 130.343-1.016-2.476h.508l-.043.063a4.9 4.9 0 0 1-1.143 1.461c-.465.402-1.037.72-1.693.952-.656.233-1.397.339-2.201.339-1.291 0-2.307-.381-3.09-1.164q-1.143-1.174-1.143-3.81v-11.896q0-2.634 1.206-3.81c.804-.783 1.863-1.164 3.175-1.164 1.058 0 2.011.233 2.836.678.826.444 1.397.91 1.694 1.354l.063.106h-.508v-7.726h5.08v27.093zm-3.493-17.547c-.825 0-1.248.572-1.248 1.736v10.287q0 1.016.444 1.46c.296.297.741.445 1.312.445.551 0 .953-.169 1.228-.508s.402-.762.402-1.291v-11.049c-.571-.72-1.27-1.08-2.138-1.08m8.573-7.852v2.37h-8.911v-2.37zm14.901 25.399h-5.08v-2.307h.508c-.254.466-.593.91-1.058 1.313-.445.402-1.016.719-1.672.973q-.985.381-2.223.381c-1.27 0-2.244-.381-2.963-1.143-.72-.762-1.059-2.053-1.059-3.831v-16.531h5.08v15.811c0 1.143.466 1.736 1.397 1.736.297 0 .614-.127.974-.402q.54-.413 1.016-1.016v-16.129h5.08v21.167zm-1.418-26.923v2.37l-10.732 2.371v-2.371zm3.45 5.757h5.079v2.476h-.508l.233-.296c.529-.635 1.228-1.206 2.138-1.736a5.7 5.7 0 0 1 2.921-.783c1.249 0 2.159.381 2.773 1.143s.91 2.032.91 3.853v16.531h-5.08v-15.812c0-1.143-.423-1.735-1.249-1.735-.825 0-1.566.359-2.138 1.079v16.468h-5.079zm17.145 1.482c1.059-1.228 2.773-1.821 5.207-1.821h7.387v3.387h-4.677v-.508a5.77 5.77 0 0 1 2.645 1.503q1.08 1.111 1.08 3.683v.444c0 1.312-.212 2.455-.635 3.45s-1.101 1.778-2.074 2.371q-1.43.89-3.747.889h-1.249q-.793 0-1.143.254c-.233.169-.381.444-.381.825q0 1.143 1.524 1.143h2.159c2.329 0 4.022.403 5.101 1.207 1.08.804 1.609 2.159 1.609 4.043 0 2.138-.55 3.662-1.672 4.572s-2.688 1.354-4.699 1.354h-2.477c-1.926 0-3.45-.359-4.614-1.058-1.164-.698-1.736-1.757-1.736-3.175 0-.825.149-1.545.424-2.138a3.1 3.1 0 0 1 1.27-1.397c.571-.36 1.27-.571 2.095-.698v.508c-1.122-.148-1.947-.551-2.434-1.186-.508-.635-.741-1.439-.741-2.434 0-.91.233-1.693.72-2.37.487-.678 1.312-1.101 2.455-1.249v.508c-1.122-.148-1.905-.783-2.328-1.842-.423-1.079-.635-2.265-.635-3.577v-1.799c0-2.032.529-3.662 1.566-4.868zm2.202 22.182q.381.381 1.143.381h4.064q.729 0 1.143-.381.381-.381.381-1.016c0-.444-.127-.783-.381-.995q-.381-.317-1.143-.317h-4.064q-.795 0-1.143.317c-.254.212-.381.551-.381.995 0 .445.127.762.381 1.016m1.735-13.398c.275.254.635.381 1.059.381s.825-.127 1.121-.381q.445-.381.445-1.143v-3.726q0-.729-.445-1.143c-.296-.254-.677-.381-1.121-.381-.445 0-.784.127-1.059.381s-.423.635-.423 1.143v3.726c0 .486.148.867.423 1.143m-47.371 44.746v-27.072h5.08v27.093h-5.058zm5.08-4.191v4.191h-.677v-4.191zm3.429-15.473c1.058-1.228 2.794-1.82 5.207-1.82s4.149.613 5.207 1.82c1.058 1.228 1.566 2.836 1.566 4.868v8.425c0 2.031-.529 3.661-1.566 4.868-1.058 1.227-2.773 1.82-5.207 1.82s-4.149-.614-5.207-1.82c-1.058-1.228-1.566-2.837-1.566-4.868v-8.425c0-2.032.529-3.662 1.566-4.868m3.937 15.43c.296.254.699.381 1.228.381s.931-.127 1.249-.381c.317-.254.465-.635.465-1.143v-10.371c0-.487-.169-.868-.465-1.143-.318-.254-.741-.381-1.249-.381s-.932.127-1.228.381q-.444.381-.444 1.143v10.371q0 .73.444 1.143m11.303-15.43c1.059-1.228 2.794-1.82 5.207-1.82s4.149.613 5.207 1.82c1.059 1.228 1.567 2.836 1.567 4.868v8.425c0 2.031-.53 3.661-1.567 4.868-1.058 1.227-2.773 1.82-5.207 1.82s-4.148-.614-5.207-1.82c-1.058-1.228-1.566-2.837-1.566-4.868v-8.425c0-2.032.529-3.662 1.566-4.868m3.937 15.43c.297.254.699.381 1.228.381s.931-.127 1.249-.381c.317-.254.465-.635.465-1.143v-10.371c0-.487-.169-.868-.465-1.143-.318-.254-.741-.381-1.249-.381s-.931.127-1.228.381q-.444.381-.444 1.143v10.371q0 .73.444 1.143m9.906-22.838h5.08v13.589h-.508l4.276-7.663h4.741l-2.921 6.71c-.338.741-.656 1.312-.973 1.672-.318.381-.762.635-1.355.805q-.889.254-2.54.254v-.508c1.101 0 1.947.084 2.519.254.571.169 1.016.444 1.312.804s.593.931.889 1.736l3.662 9.44h-5.419l-4.17-10.097h.508v10.097h-5.08v-27.093z"/></g><defs><clipPath id="a"><path fill="#fff" d="M0 0h400v180H0z"/></clipPath></defs></svg>

<svg width="400" height="180" viewBox="0 0 400 180" fill="none" xmlns="http://www.w3.org/2000/svg">
<g clip-path="url(#clip0_70_1029)">
<path d="M290 0C290 49.699 249.699 90 200 90C150.301 90 110 49.699 110 0H290Z" fill="white"/>
<path d="M200 90C224.853 90 245 69.8528 245 45C245 20.1472 224.853 0 200 0C175.147 0 155 20.1472 155 45C155 69.8528 175.147 90 200 90Z" fill="#010101"/>
<path d="M110 180C110 130.301 150.301 90 200 90C249.699 90 290 130.301 290 180L110 180Z" fill="white"/>
<path d="M200 180C224.853 180 245 159.853 245 135C245 110.147 224.853 90 200 90C175.147 90 155 110.147 155 135C155 159.853 175.147 180 200 180Z" fill="#010101"/>
<path d="M179.257 130.343L178.241 127.867H178.749L178.706 127.93C178.41 128.502 178.029 128.989 177.563 129.391C177.098 129.793 176.526 130.111 175.87 130.343C175.214 130.576 174.473 130.682 173.669 130.682C172.378 130.682 171.362 130.301 170.579 129.518C169.817 128.735 169.436 127.465 169.436 125.708V113.812C169.436 112.056 169.838 110.786 170.642 110.002C171.446 109.219 172.505 108.838 173.817 108.838C174.875 108.838 175.828 109.071 176.653 109.516C177.479 109.96 178.05 110.426 178.347 110.87L178.41 110.976H177.902V103.25H182.982V130.343H179.257ZM175.764 112.796C174.939 112.796 174.516 113.368 174.516 114.532V124.819C174.516 125.496 174.664 125.983 174.96 126.279C175.256 126.576 175.701 126.724 176.272 126.724C176.823 126.724 177.225 126.555 177.5 126.216C177.775 125.877 177.902 125.454 177.902 124.925V113.876C177.331 113.156 176.632 112.796 175.764 112.796ZM184.337 104.944V107.314H175.426V104.944H184.337Z" fill="white"/>
<path d="M199.238 130.343H194.158V128.036H194.666C194.412 128.502 194.073 128.946 193.608 129.349C193.163 129.751 192.592 130.068 191.936 130.322C191.279 130.576 190.539 130.703 189.713 130.703C188.443 130.703 187.469 130.322 186.75 129.56C186.03 128.798 185.691 127.507 185.691 125.729V109.198H190.771V125.009C190.771 126.152 191.237 126.745 192.168 126.745C192.465 126.745 192.782 126.618 193.142 126.343C193.502 126.068 193.841 125.729 194.158 125.327V109.198H199.238V130.365V130.343ZM197.82 103.42V105.79L187.088 108.161V105.79L197.82 103.42Z" fill="white"/>
<path d="M201.27 109.177H206.349V111.653H205.841L206.074 111.357C206.603 110.722 207.302 110.151 208.212 109.621C209.122 109.092 210.096 108.838 211.133 108.838C212.382 108.838 213.292 109.219 213.906 109.981C214.52 110.743 214.816 112.013 214.816 113.834V130.365H209.736V114.553C209.736 113.41 209.313 112.818 208.487 112.818C207.662 112.818 206.921 113.177 206.349 113.897V130.365H201.27V109.198V109.177Z" fill="white"/>
<path d="M218.415 110.659C219.474 109.431 221.188 108.838 223.622 108.838H231.009V112.225H226.332V111.717C227.369 111.992 228.258 112.5 228.977 113.22C229.697 113.961 230.057 115.188 230.057 116.903V117.347C230.057 118.659 229.845 119.802 229.422 120.797C228.999 121.792 228.321 122.575 227.348 123.168C226.395 123.761 225.146 124.057 223.601 124.057H222.352C221.823 124.057 221.442 124.142 221.209 124.311C220.976 124.48 220.828 124.755 220.828 125.136C220.828 125.898 221.336 126.279 222.352 126.279H224.511C226.84 126.279 228.533 126.682 229.612 127.486C230.692 128.29 231.221 129.645 231.221 131.529C231.221 133.667 230.671 135.191 229.549 136.101C228.427 137.011 226.861 137.455 224.85 137.455H222.373C220.447 137.455 218.923 137.096 217.759 136.397C216.595 135.699 216.023 134.64 216.023 133.222C216.023 132.397 216.172 131.677 216.447 131.084C216.722 130.492 217.145 130.026 217.717 129.687C218.288 129.327 218.987 129.116 219.812 128.989V129.497C218.69 129.349 217.865 128.946 217.378 128.311C216.87 127.676 216.637 126.872 216.637 125.877C216.637 124.967 216.87 124.184 217.357 123.507C217.844 122.829 218.669 122.406 219.812 122.258V122.766C218.69 122.618 217.907 121.983 217.484 120.924C217.061 119.845 216.849 118.659 216.849 117.347V115.548C216.849 113.516 217.378 111.886 218.415 110.68V110.659ZM220.617 132.841C220.871 133.095 221.252 133.222 221.76 133.222H225.824C226.31 133.222 226.691 133.095 226.967 132.841C227.221 132.587 227.348 132.248 227.348 131.825C227.348 131.381 227.221 131.042 226.967 130.83C226.713 130.619 226.332 130.513 225.824 130.513H221.76C221.23 130.513 220.849 130.619 220.617 130.83C220.363 131.042 220.236 131.381 220.236 131.825C220.236 132.27 220.363 132.587 220.617 132.841ZM222.352 119.443C222.627 119.697 222.987 119.824 223.411 119.824C223.834 119.824 224.236 119.697 224.532 119.443C224.829 119.189 224.977 118.808 224.977 118.3V114.574C224.977 114.088 224.829 113.707 224.532 113.431C224.236 113.177 223.855 113.05 223.411 113.05C222.966 113.05 222.627 113.177 222.352 113.431C222.077 113.685 221.929 114.066 221.929 114.574V118.3C221.929 118.786 222.077 119.167 222.352 119.443Z" fill="white"/>
<path d="M174.981 164.189C174.981 164.189 174.981 164.167 174.981 164.146V137.117H180.061V164.21H175.045H175.003L174.981 164.189ZM180.061 159.998V164.189H179.384V159.998H180.061Z" fill="white"/>
<path d="M183.49 144.525C184.548 143.297 186.284 142.705 188.697 142.705C191.11 142.705 192.846 143.318 193.904 144.525C194.962 145.753 195.47 147.361 195.47 149.393V157.818C195.47 159.849 194.941 161.479 193.904 162.686C192.846 163.913 191.131 164.506 188.697 164.506C186.263 164.506 184.548 163.892 183.49 162.686C182.432 161.458 181.924 159.849 181.924 157.818V149.393C181.924 147.361 182.453 145.731 183.49 144.525ZM187.427 159.955C187.723 160.209 188.126 160.336 188.655 160.336C189.184 160.336 189.586 160.209 189.904 159.955C190.221 159.701 190.369 159.32 190.369 158.812V148.441C190.369 147.954 190.2 147.573 189.904 147.298C189.586 147.044 189.163 146.917 188.655 146.917C188.147 146.917 187.723 147.044 187.427 147.298C187.131 147.552 186.983 147.933 186.983 148.441V158.812C186.983 159.299 187.131 159.68 187.427 159.955Z" fill="white"/>
<path d="M198.73 144.525C199.789 143.297 201.524 142.705 203.937 142.705C206.35 142.705 208.086 143.318 209.144 144.525C210.203 145.753 210.711 147.361 210.711 149.393V157.818C210.711 159.849 210.181 161.479 209.144 162.686C208.086 163.913 206.371 164.506 203.937 164.506C201.503 164.506 199.789 163.892 198.73 162.686C197.672 161.458 197.164 159.849 197.164 157.818V149.393C197.164 147.361 197.693 145.731 198.73 144.525ZM202.667 159.955C202.964 160.209 203.366 160.336 203.895 160.336C204.424 160.336 204.826 160.209 205.144 159.955C205.461 159.701 205.609 159.32 205.609 158.812V148.441C205.609 147.954 205.44 147.573 205.144 147.298C204.826 147.044 204.403 146.917 203.895 146.917C203.387 146.917 202.964 147.044 202.667 147.298C202.371 147.552 202.223 147.933 202.223 148.441V158.812C202.223 159.299 202.371 159.68 202.667 159.955Z" fill="white"/>
<path d="M212.573 137.117H217.653V150.706H217.145L221.421 143.043H226.162L223.241 149.753C222.903 150.494 222.585 151.065 222.268 151.425C221.95 151.806 221.506 152.06 220.913 152.23C220.32 152.399 219.474 152.484 218.373 152.484V151.976C219.474 151.976 220.32 152.06 220.892 152.23C221.463 152.399 221.908 152.674 222.204 153.034C222.5 153.394 222.797 153.965 223.093 154.77L226.755 164.21H221.336L217.166 154.113H217.674V164.21H212.594V137.117H212.573Z" fill="white"/>
</g>
<defs>
<clipPath id="clip0_70_1029">
<rect width="400" height="180" fill="white"/>
</clipPath>
</defs>
</svg>
